packages/ui-icons/svg/Line/mic.svg

<svg viewBox="0 0 1920 1920" version="1.1" xmlns="http://www.w3.org/2000/svg">
    <path d="M960.314561,96.8176248 C773.456546,96.8176248 621.452875,248.821296 621.452875,435.679312 L621.452875,919.767436 C621.452875,1106.62545 773.456546,1258.62912 960.314561,1258.62912 C1147.17258,1258.62912 1299.17625,1106.62545 1299.17625,919.767436 L1299.17625,435.679312 C1299.17625,248.821296 1147.17258,96.8176248 960.314561,96.8176248 M427.817625,709.983006 L427.817625,943.4103 C427.817625,1236.96134 666.763523,1475.90724 960.314561,1475.90724 C1253.8656,1475.90724 1492.8115,1236.96134 1492.8115,943.4103 L1492.8115,709.983006 L1589.62912,709.983006 L1589.62912,943.4103 C1589.62912,1274.11677 1333.19106,1546.07818 1008.72823,1570.88121 L1008.723,1823.182 L1250.76744,1823.18238 L1250.76744,1920 L669.861687,1920 L669.861687,1823.18238 L911.905,1823.182 L911.900895,1570.88121 C587.438064,1546.07818 331,1274.11677 331,943.4103 L331,709.983006 L427.817625,709.983006 Z M960.314561,0 C1200.51909,0 1395.99387,195.474785 1395.99387,435.679312 L1395.99387,919.767436 C1395.99387,1159.97196 1200.51909,1355.44675 960.314561,1355.44675 C720.110034,1355.44675 524.63525,1159.97196 524.63525,919.767436 L524.63525,435.679312 C524.63525,195.474785 720.110034,0 960.314561,0 Z" stroke="none" stroke-width="1" fill-rule="evenodd"/>
</svg>

<svg viewBox="0 0 1920 1920" version="1.1" xmlns="http://www.w3.org/2000/svg">
    <path d="M960.315 96.818c-186.858 0-338.862 152.003-338.862 338.861v484.088c0 186.858 152.004 338.862 338.862 338.862 186.858 0 338.861-152.004 338.861-338.862V435.68c0-186.858-152.003-338.861-338.861-338.861m48.408 1726.364h242.044V1920H669.862v-96.818h242.044v-252.3C587.44 1546.08 331 1274.118 331 943.41V709.983h96.818V943.41c0 293.551 238.946 532.497 532.497 532.497 293.55 0 532.496-238.946 532.496-532.497V709.983h96.818V943.41c0 330.708-256.44 602.67-580.906 627.472v252.3zm-48.408-467.735c-240.205 0-435.68-195.475-435.68-435.68V435.68C524.635 195.475 720.11 0 960.315 0c240.204 0 435.679 195.475 435.679 435.68v484.087c0 240.205-195.475 435.68-435.68 435.68z" stroke="none" stroke-width="1" fill-rule="evenodd"/>
</svg>
